tetrification/src/assets/images/navbar/leaderboard.svg

<svg width="40" height="39" viewBox="0 0 40 39" fill="none" xmlns="http://www.w3.org/2000/svg">
<path d="M8.23323 9.72781L10.7649 10.0213L8.89617 11.7435L8.88116 11.7574L8.86674 11.7718C8.62611 12.0124 8.2803 12.5143 8.42896 13.1587L8.93886 15.6354L6.73922 14.3889L6.71664 14.3761L6.69342 14.3645C6.2434 14.1395 5.74354 14.1395 5.29353 14.3645L5.27031 14.3761L5.24773 14.3889L3.04809 15.6354L3.56105 13.1439L3.58159 13.0441V12.9422C3.58159 12.6196 3.50025 12.1518 3.12021 11.7718L3.10578 11.7574L3.09078 11.7435L1.21731 10.017L3.74981 9.72338L3.81425 9.71591L3.87718 9.70018C4.28088 9.59925 4.67276 9.35321 4.90817 8.88239L4.91538 8.86797L4.92212 8.85332L5.97241 6.57165L6.99619 8.79572C7.18295 9.33117 7.68676 9.69624 8.23323 9.72781Z" stroke="#E2D2FF" stroke-width="2"/>
<path d="M1.98145 21.3207C1.98145 20.9897 2.05645 20.7478 2.127 20.6201H9.64572C9.71626 20.7478 9.79127 20.9897 9.79127 21.3207V36.5582C9.79127 36.8892 9.71626 37.1311 9.64572 37.2588H2.127C2.05645 37.1311 1.98145 36.8892 1.98145 36.5582V21.3207ZM9.598 20.5493C9.59806 20.5489 9.60037 20.551 9.60473 20.5564C9.60013 20.5522 9.59794 20.5496 9.598 20.5493ZM9.598 37.3297C9.59795 37.3293 9.60013 37.3267 9.60473 37.3225C9.60037 37.3279 9.59806 37.33 9.598 37.3297ZM2.17471 37.3297C2.17465 37.33 2.17235 37.3279 2.16798 37.3225C2.17259 37.3267 2.17477 37.3294 2.17471 37.3297ZM2.16798 20.5564C2.17235 20.551 2.17465 20.5489 2.17471 20.5493C2.17477 20.5496 2.17259 20.5522 2.16798 20.5564Z" stroke="#E2D2FF" stroke-width="2"/>
<path d="M19.9988 1.26403L21.0226 3.4881C21.2093 4.02356 21.7131 4.38863 22.2596 4.42019L24.7913 4.71372L22.9225 6.43592L22.9075 6.44975L22.8931 6.46417C22.6525 6.7048 22.3067 7.2067 22.4553 7.85112L22.9652 10.3278L20.7656 9.08131L20.743 9.06851L20.7198 9.0569C20.2698 8.8319 19.7699 8.8319 19.3199 9.0569L19.2967 9.06851L19.2741 9.08131L17.0745 10.3278L17.5874 7.83627L17.608 7.73649V7.63462C17.608 7.31198 17.5266 6.84421 17.1466 6.46417L17.1321 6.44975L17.1171 6.43592L15.2437 4.70939L17.7762 4.41576L17.8406 4.40829L17.9035 4.39256C18.3072 4.29163 18.6991 4.0456 18.9345 3.57477L18.9417 3.56035L18.9485 3.54571L19.9988 1.26403Z" stroke="#E2D2FF" stroke-width="2"/>
<path d="M24.5045 16.1342L24.5031 16.1603V16.1863V36.787C24.5031 37.0159 24.4363 37.1703 24.3839 37.242C24.3792 37.2485 24.3749 37.2539 24.3712 37.2584H15.8468C15.8431 37.2539 15.8388 37.2485 15.8341 37.242C15.7817 37.1703 15.7148 37.0159 15.7148 36.787V16.1863C15.7148 15.9574 15.7817 15.803 15.8341 15.7313C15.8388 15.7248 15.8431 15.7193 15.8468 15.7148H24.3927C24.3965 15.7195 24.4008 15.725 24.4054 15.7313C24.4567 15.8016 24.5146 15.9404 24.5045 16.1342ZM24.3529 37.2773C24.3529 37.2772 24.3536 37.2766 24.3551 37.2756C24.3537 37.2769 24.3529 37.2774 24.3529 37.2773ZM15.8651 37.2773C15.8651 37.2774 15.8643 37.2769 15.8629 37.2756C15.8644 37.2766 15.8651 37.2772 15.8651 37.2773ZM15.8651 15.696C15.8651 15.6961 15.8643 15.6967 15.8628 15.6977C15.8643 15.6964 15.8651 15.6959 15.8651 15.696ZM24.3685 15.6907C24.3685 15.6905 24.3703 15.6916 24.3737 15.6945C24.3701 15.6924 24.3684 15.6909 24.3685 15.6907Z" stroke="#E2D2FF" stroke-width="2"/>
<path d="M34.0261 9.18298L35.0499 11.407C35.2367 11.9425 35.7405 12.3076 36.2869 12.3391L38.8186 12.6327L36.9499 14.3549L36.9349 14.3687L36.9204 14.3831C36.6798 14.6237 36.334 15.1256 36.4827 15.77L36.9926 18.2467L34.7929 17.0003L34.7703 16.9875L34.7471 16.9758C34.2971 16.7508 33.7973 16.7508 33.3472 16.9758L33.324 16.9875L33.3014 17.0003L31.1018 18.2467L31.6148 15.7552L31.6353 15.6554V15.5536C31.6353 15.2309 31.554 14.7632 31.1739 14.3831L31.1595 14.3687L31.1445 14.3549L29.271 12.6283L31.8035 12.3347L31.868 12.3272L31.9309 12.3115C32.3346 12.2106 32.7265 11.9645 32.9619 11.4937L32.9691 11.4793L32.9758 11.4646L34.0261 9.18298Z" stroke="#E2D2FF" stroke-width="2"/>
<path d="M38.2374 24.372L38.2365 24.3927V24.4134V36.4073C38.2365 36.7863 38.148 37.0679 38.0601 37.2194C38.0512 37.2347 38.0432 37.2475 38.0361 37.2582H29.6487C29.6416 37.2475 29.6336 37.2347 29.6247 37.2194C29.5367 37.0679 29.4482 36.7863 29.4482 36.4073V24.4134C29.4482 24.0344 29.5367 23.7528 29.6247 23.6013C29.6336 23.5861 29.6416 23.5732 29.6487 23.5625H38.0502C38.0593 23.5751 38.0701 23.5912 38.0823 23.6117C38.168 23.7552 38.252 24.02 38.2374 24.372ZM37.997 37.3062C37.9969 37.3058 37.9997 37.3028 38.0056 37.2985C38 37.3045 37.9971 37.3067 37.997 37.3062ZM29.6878 37.3062C29.6877 37.3067 29.6847 37.3045 29.6792 37.2985C29.6851 37.3028 29.6879 37.3058 29.6878 37.3062ZM29.6878 23.5145C29.6879 23.5149 29.6851 23.5179 29.6792 23.5222C29.6847 23.5162 29.6877 23.5141 29.6878 23.5145ZM38.0148 23.5232C38.0149 23.5228 38.0181 23.5248 38.024 23.5308C38.0176 23.5267 38.0146 23.5237 38.0148 23.5232Z" stroke="#E2D2FF" stroke-width="2"/>
</svg>

<svg xmlns="http://www.w3.org/2000/svg" width="40" height="39" fill="none"><path stroke="#E2D2FF" stroke-width="2" d="m8.233 9.728 2.532.293-1.869 1.722-.015.014-.014.015c-.24.24-.587.742-.438 1.387l.51 2.476-2.2-1.246-.022-.013-.024-.011a1.536 1.536 0 0 0-1.4 0l-.023.011-.022.013-2.2 1.246.513-2.491.02-.1v-.102c0-.322-.08-.79-.46-1.17l-.015-.015-.015-.014-1.874-1.726 2.533-.294.064-.007.063-.016c.404-.1.796-.347 1.031-.818l.007-.014.007-.015 1.05-2.281 1.024 2.224c.187.535.69.9 1.237.932ZM1.981 21.32c0-.33.075-.572.146-.7h7.519c.07.128.145.37.145.7v15.238c0 .331-.075.573-.145.7H2.127c-.07-.127-.146-.369-.146-.7V21.321Zm7.617-.77.007.006a.036.036 0 0 1-.007-.007Zm0 16.78.007-.008a.03.03 0 0 1-.007.008Zm-7.423 0-.007-.008a.034.034 0 0 1 .007.008Zm-.007-16.774.007-.007-.007.007ZM19.999 1.264l1.024 2.224c.186.536.69.9 1.237.932l2.531.294-1.869 1.722-.015.014-.014.014c-.24.24-.586.743-.438 1.387l.51 2.477-2.2-1.247-.022-.012-.023-.012a1.536 1.536 0 0 0-1.4 0l-.023.012-.023.012-2.2 1.247.513-2.492.021-.1v-.101c0-.323-.081-.79-.461-1.17l-.015-.015-.015-.014-1.873-1.727 2.532-.293.065-.008.063-.015c.403-.101.795-.347 1.03-.818l.008-.015.006-.014 1.05-2.282ZM24.505 16.134l-.002.026v20.627c0 .229-.067.383-.12.455a.329.329 0 0 1-.012.016h-8.524a.329.329 0 0 1-.013-.016c-.052-.072-.12-.226-.12-.455v-20.6c0-.23.068-.384.12-.456a.336.336 0 0 1 .013-.016h8.546l.012.016c.052.07.11.21.1.403Zm-.152 21.143.002-.001-.002.001Zm-8.488 0-.002-.001a.01.01 0 0 1 .002.001Zm0-21.581-.002.002.002-.002Zm8.504-.005.005.003-.005-.003ZM34.026 9.183l1.024 2.224c.187.536.69.9 1.237.932l2.532.294-1.87 1.722-.014.014-.015.014c-.24.24-.586.743-.437 1.387l.51 2.477-2.2-1.247-.023-.012-.023-.012a1.536 1.536 0 0 0-1.4 0l-.023.012-.023.012-2.2 1.247.514-2.492.02-.1v-.101c0-.323-.081-.79-.461-1.17l-.014-.015-.015-.014-1.874-1.727 2.532-.293.065-.008.063-.015c.404-.101.796-.348 1.03-.818l.008-.015.007-.014 1.05-2.282ZM38.237 24.372v12.035c0 .38-.089.66-.177.812a.776.776 0 0 1-.024.04H29.65a.776.776 0 0 1-.024-.04c-.088-.151-.177-.433-.177-.812V24.413c0-.379.089-.66.177-.812a.825.825 0 0 1 .024-.038h8.401c.01.012.02.028.032.049.086.143.17.408.155.76Zm-.24 12.934.009-.008-.009.008Zm-8.31 0-.008-.008a.032.032 0 0 1 .009.008Zm0-13.791-.008.007c.006-.006.009-.008.009-.007Zm8.328.008.009.008-.01-.008Z"/></svg>
